svgs/thin/circle-bookmark.svg

<svg xmlns="http://www.w3.org/2000/svg" viewBox="0 0 512 512"><!--! Font Awesome Pro 6.3.0 by @fontawesome - https://fontawesome.com License - https://fontawesome.com/license (Commercial License) Copyright 2023 Fonticons, Inc. --><path d="M312 128h-112C177.9 128 160 145.9 160 168v208c0 3.094 1.781 5.906 4.562 7.234c2.812 1.344 6.094 .9062 8.5-1.047L256 314.3l82.94 67.84C340.4 383.4 342.2 384 344 384c1.156 0 2.344-.25 3.438-.7656C350.2 381.9 352 379.1 352 376v-208C352 145.9 334.1 128 312 128zM336 359.1l-74.94-61.31C259.6 296.6 257.8 296 256 296S252.4 296.6 250.9 297.8L176 359.1V168c0-13.23 10.78-24 24-24h112c13.22 0 24 10.77 24 24V359.1zM256 0C114.6 0 0 114.6 0 256c0 141.4 114.6 256 256 256s256-114.6 256-256C512 114.6 397.4 0 256 0zM256 496c-132.3 0-240-107.7-240-240S123.7 16 256 16s240 107.7 240 240S388.3 496 256 496z"/></svg>

<svg xmlns="http://www.w3.org/2000/svg" viewBox="0 0 512 512"><!-- Font Awesome Pro 6.0.0-alpha2 by @fontawesome - https://fontawesome.com License - https://fontawesome.com/license (Commercial License) --><path d="M256 16C123.451 16 16 123.451 16 256S123.451 496 256 496S496 388.549 496 256S388.549 16 256 16ZM256 480C132.486 480 32 379.514 32 256S132.486 32 256 32S480 132.486 480 256S379.514 480 256 480ZM312 128H200C177.938 128 160 145.938 160 168V376C160 379.094 161.781 381.906 164.562 383.234C167.375 384.578 170.656 384.141 173.062 382.188L256 314.344L338.938 382.188C340.406 383.391 342.188 384 344 384C345.156 384 346.344 383.75 347.438 383.234C350.219 381.906 352 379.094 352 376V168C352 145.938 334.062 128 312 128ZM336 359.125L261.062 297.812C259.594 296.609 257.781 296 256 296S252.406 296.609 250.938 297.812L176 359.125V168C176 154.766 186.781 144 200 144H312C325.219 144 336 154.766 336 168V359.125Z"/></svg>
